X:1
T:Ain't It Great To Be Crazy
M:4/4
L:1/4
K:C
 G,| C C/2D/2 E/2D/2 C| D2 G G,| C C/2D/2 E/2D/2 C| D F,3.99999962500005/11.9999985000002 G,3.99999962500005/11.9999985000002 A,3.99999962500005/11.9999985000002 G, F,|\
 A3/4 A/4 A G E| F3/4 E/4 F E G,| C C3/4 D/4 E3/4 D/4 C/2 z/2| z D C z|\
 E G G A3/4 A/4| E/2 G3/2 G- G/2G/2| E G G A3/4 A/4| E3/4 E/4 _E D3/2 D/2|\
 E3/4 G/4 G G A| E3/4 G/4 G G G| c3/4 c/4 c3/4 c/4 c C| E D C z|
